!!!COM: Bach, Johann Sebastian
!!!OPR: Die Kunst der Fuge
!!!XEN: The Art of Fugue
!!!OTL:
!!!OMV: 11
!!!SCT: BWV 1080
!!!SCA: Thematisch-systematisches Verzeichnis der musikalischen Werke Johann Sebastian Bach: Bach-Werke-Verzeichnis (Schmieder)
!!!YOR: Bach Gesellschaft Edition xxv,1
!!!EED: Frances Bennion
!!!ENC: Frances Bennion
!!!CDT: 1685/3//-1750/7/28/
!!!OCY: Deutschland
!!!YEC: Copyright (c) 1994, 2000 Center for Computer Assisted Research in the Humanities
!!!YEM: Rights to all derivative editions reserved.
!!!YEM: Refer to licensing agreement for further details.
!!!YEN: United States of America
**kern	**kern	**kern	**kern
*k[b-]	*k[b-]	*k[b-]	*k[b-]
*d:	*d:	*d:	*d:
*clefG	*clefG	*clefC	*clefC
*M2/2	*M2/2	*M2/2	*M2/2
=1	=1	=1	=1
1r	4r	1r	1r
.	4d	.	.
.	4a	.	.
.	4g	.	.
=2	=2	=2	=2
1r	4r	1r	1r
.	4f	.	.
.	4e	.	.
.	4d	.	.
=3	=3	=3	=3
1r	4r	1r	1r
.	4c#	.	.
.	4d	.	.
.	4e	.	.
=4	=4	=4	=4
1r	4r	1r	1r
.	8f	.	.
.	8g	.	.
.	4f	.	.
.	4e	.	.
=5	=5	=5	=5
4r	4d	1r	1r
4a	8c	.	.
.	8B	.	.
4ee	4c	.	.
4dd	4d	.	.
=6	=6	=6	=6
4r	4e	1r	1r
4cc	4A	.	.
4b	8d	.	.
.	8e	.	.
4a	4f	.	.
=7	=7	=7	=7
4r	4.e	1r	1r
4g#	.	.	.
.	8d	.	.
4a	8c	.	.
.	8B	.	.
4b	8A	.	.
.	8G#	.	.
=8	=8	=8	=8
4r	8A	1r	1r
.	8e	.	.
8cc	4.a	.	.
8dd	.	.	.
4cc	.	.	.
.	8d	.	.
4b	[4g	.	.
=9	=9	=9	=9
4a	4g]	1r	4r
4b	8f	.	4D
.	8g	.	.
4cc	4f	.	4A
4cc#	4e	.	4G
=10	=10	=10	=10
4dd	8f	1r	4r
.	8g	.	.
8cc#	4a	.	4F
8b	.	.	.
4cc#	8g	.	4E
.	8a	.	.
4dd	[4b-	.	4D
=11	=11	=11	=11
4ee	4b-]	1r	4r
4gg	8a	.	4C#
.	8b-	.	.
4ff	4a	.	4D
4ee	[4g	.	4E
=12	=12	=12	=12
4aa	4g]	1r	4r
4dd	4f	.	8F
.	.	.	8G
4b	4d	.	4F
4cc#	[4g	.	4E
=13	=13	=13	=13
2dd	4g]	4r	2D
.	4f	4A	.
4cc	8e	4e	4r
.	4a	.	.
4b	.	4d	4E
.	8g#	.	.
=14	=14	=14	=14
4a	4a	4r	4F
4ee	8g#	4c	8E
.	8f#	.	8D
4dd	4g#	4B	4E
[4cc	4a	4A	4F
=15	=15	=15	=15
4cc]	8d	4r	4BB
.	8e	.	.
4b	4f	4G#	8C
.	.	.	8D
4a	4e	4A	4C
4g#	[4d	4B	4BB
=16	=16	=16	=16
4a	4d]	4r	4AA
4e	4c	8c	4A
.	.	8d	.
4r	4f	4c	4D
4b	8e	4B	[4G
.	8d	.	.
=17	=17	=17	=17
4cc#	4e	2A	4G]
2dd	4f	.	8F
.	.	.	8G
.	[2g	4B	4F
4ee	.	4c#	4E
=18	=18	=18	=18
4a	4g]	2d	4D
8aa	8f	.	2.r
8bb-	8e	.	.
4aa	4f	4r	.
4gg	4b-	8d	.
.	.	8c#	.
=19	=19	=19	=19
4ff	4a	4d	4r
4cc#	4g	4e	8D
.	.	.	8E
4dd	4a	4f	4D
4r	[4ee-	4f#	4C
=20	=20	=20	=20
1r	4ee-]	4.g	4BB-
.	8dd	.	4B-
.	8ee-	8f#	.
.	4dd	4g	4E
.	[4cc	4a	4F#
=21	=21	=21	=21
4r	4cc]	4d	2.G
8ee	8b-	8g	.
8ff	8cc	8a	.
4ee	4b-	4g	.
4dd	4a	4f	4A
=22	=22	=22	=22
4cc#	4g	2e	4B-
4ee	4c#	.	8A
.	.	.	8G
4aa	4r	4d	8F
.	.	.	8E
4gg	[4a	4E	8D
.	.	.	8C#
=23	=23	=23	=23
4r	8a]	4F	4D
.	4dd	.	.
4ff	.	4d	2r
.	8cc	.	.
4ee	8b-	4g	.
.	4a	.	.
4dd	.	4f	4D
.	8b-	.	.
=24	=24	=24	=24
4r	4c#	8e	4A
.	.	4f	.
4cc#	4b-	.	4G
.	.	8e	.
4dd	4a	8A	4F
.	.	4d	.
4ee	4g	.	4B-
.	.	8c#	.
=25	=25	=25	=25
4r	4f	4d	8A
.	.	.	8G
8ff	2dd	4a	4F
8gg	.	.	.
4ff	.	4b-	4G
4ee	8cc#	4e	[4A
.	8cc	.	.
=26	=26	=26	=26
2.dd	4b	2f	8A]
.	.	.	8G#
.	4b-	.	8A
.	.	.	8G#
.	2a	8e	4A
.	.	8f	.
4cc#	.	[4g	4AA
=27	=27	=27	=27
2dd	2a	4g]	2D
.	.	4f	.
2r	2A	2r	2r
=28	=28	=28	=28
4r	4B-	1r	1r
4d	4F	.	.
4e-	4c	.	.
4e	4c#	.	.
=29	=29	=29	=29
4f	4d	1r	1r
4f#	4A	.	.
4g	2e	.	.
4g#	.	.	.
=30	=30	=30	=30
8a	4f	1r	4r
8b	.	.	.
8cc	4e	.	2A
8a	.	.	.
4.ff	8d	.	.
.	8e	.	.
.	4d	.	4G#
16ee	.	.	.
16dd	.	.	.
=31	=31	=31	=31
4cc#	4.a	1r	4G
4dd	.	.	4F#
.	8a	.	.
[2gg	8b	.	4F
.	8a	.	.
.	8b	.	4E
.	8cc#	.	.
=32	=32	=32	=32
4gg]	4dd	1r	2D
8ff	4a	.	.
8ee	.	.	.
8ff	4dd	.	2r
8gg	.	.	.
8ff	4cc#	.	.
8ee	.	.	.
=33	=33	=33	=33
4dd	4cc	1r	1r
8gg	4b	.	.
8ff#	.	.	.
8gg	4b-	.	.
8aa	.	.	.
8gg	4a	.	.
8ff	.	.	.
=34	=34	=34	=34
4ee	8g#	2r	1r
.	8cc	.	.
4ff#	8b	.	.
.	8a	.	.
4gg	8b	2E	.
.	8dd	.	.
4gg#	8cc	.	.
.	8b	.	.
=35	=35	=35	=35
8aa	2a	4F	4r
8gg	.	.	.
8ff	.	4C	4AA
8ee	.	.	.
8dd	4.r	4G	4BB-
8cc#	.	.	.
[4dd	.	4G#	4BB
.	8f	.	.
=36	=36	=36	=36
8dd]	4e	4A	4C
8cc	.	.	.
8b-	4g	4E	4C#
8a	.	.	.
8g#	4f	2B	4D
8a	.	.	.
8g#	4f#	.	4D#
8a	.	.	.
=37	=37	=37	=37
4g#	8e	4c	2E
.	8f#	.	.
2ee	8g#	4B	.
.	8e	.	.
.	2a	8A	2F
.	.	8B	.
4dd#	.	4A	.
=38	=38	=38	=38
4dd	4g#	4e	4E
4cc#	4g	4e	8r
.	.	.	8E
4cc	4a	4d#	8F#
.	.	.	8E
[4b	[4e	4d	8F#
.	.	.	8G#
=39	=39	=39	=39
8b]	4e]	4c#	4A
8a	.	.	.
8r	4a	2f	2.r
8aa	.	.	.
8b	4g#	.	.
8a	.	.	.
8b	[4g	4e	.
8cc#	.	.	.
=40	=40	=40	=40
4dd	8g]	4d	4r
.	8f	.	.
8r	2b-	2.r	4D
8dd	.	.	.
8ee	.	.	4C#
8dd	.	.	.
8ee	4a	.	4C
8ff#	.	.	.
=41	=41	=41	=41
8gg	4dd	4.r	4BB
8g	.	.	.
4gg	8cc	.	2E
.	8b	8G	.
4ff#	4cc	8A	.
.	.	8G	.
[4ff	4dd	8A	4D
.	.	8B	.
=42	=42	=42	=42
8ff]	4g	4c	4C
8dd	.	.	.
4ee	4cc	2.r	8r
.	.	.	8C
4ff	4b	.	8D
.	.	.	8C
4gg	[4b-	.	8D
.	.	.	8E
=43	=43	=43	=43
4cc	8b-]	1r	8F
.	8a	.	8E
4ff	[4dd	.	8F
.	.	.	8G
4ee	16dd]	.	4A
.	16cc	.	.
.	16b-	.	.
.	16a	.	.
[4ee-	8g	.	4AA
.	8f#	.	.
=44	=44	=44	=44
8ee-]	4g	4r	4BB-
8dd	.	.	.
8cc	4a-	4D	4FF
8b	.	.	.
8cc	4.g	4E-	4C
8b-	.	.	.
[4a	.	4E	4C#
.	8g	.	.
=45	=45	=45	=45
8a]	4f	4F	4D
8b	.	.	.
4.cc	8e	4F#	4AA
.	8d#	.	.
.	4e	4G	2E
8b	.	.	.
8cc#	4r	4G#	.
[8ee	.	.	.
=46	=46	=46	=46
8ee]	4r	4A	4F
4dd	.	.	.
.	4g	8r	4E
8cc#	.	8A	.
8dd	4f#	4B-	8D
4a	.	.	8E
.	4f	4B	4D
8g#	.	.	.
=47	=47	=47	=47
2a	4e	4c	2A
.	8r	4c#	.
.	8e	.	.
4.r	4f	8d	4.r
.	.	8e-	.
.	4f#	8d	.
8a	.	8c	8A
=48	=48	=48	=48
4b-	[2g	2d	8G
.	.	.	8A
4b	.	.	8G
.	.	.	8F
[2cc	8g]	4G	8E
.	8f	.	8D
.	4e	8c	4C
.	.	8B-	.
=49	=49	=49	=49
8cc]	4f	8A	4D
8dd	.	8F	.
8cc	2g	4.c	4E
8b-	.	.	.
4a	.	.	4F
.	.	8e	.
[4dd	4f#	8d	8r
.	.	8c	8D
=50	=50	=50	=50
8dd]	4g	8B	4E
8ee	.	8G	.
8dd	2a	4.d	4F#
8cc	.	.	.
4b	.	.	4G
.	.	8f	.
[4ee	4g#	8e	8r
.	.	8d	8E
=51	=51	=51	=51
8ee]	4a	4c	4F#
8aa	.	.	.
8ee	4.b	4B	4G#
8dd	.	.	.
4cc	.	16A	4A
.	.	16B	.
.	16e	16c	.
.	16f	16d	.
4cc#	16g	4e	8r
.	16a	.	.
.	8b-	.	8G
=52	=52	=52	=52
4dd	4a	4f	8F
.	.	.	8G
4ee	4g	4c#	8F
.	.	.	8E
4ff	4f	8d	8D
.	.	4.r	8AA
4ff#	8r	.	8D
.	8dd	.	8C
=53	=53	=53	=53
4gg	8ee	1r	8BB-
.	8dd	.	8C
4aa	8ee	.	8BB-
.	8ff#	.	8AA
[2bb-	8gg	.	8GG
.	8ff	.	8D
.	8ee-	.	[4G
.	8dd	.	.
=54	=54	=54	=54
8bb-]	4cc#	4.r	4G]
8ee	.	.	.
4aa	2dd	.	4F#
.	.	8A	.
4gg#	.	8B	4F
.	.	8A	.
4gg	4ee	8B	4E
.	.	8c#	.
=55	=55	=55	=55
4ff#	4a	8d	4r
.	.	8A	.
4ff	8r	4d	4D
.	4b-	.	.
4ee	.	2r	4C#
.	8a	.	.
4ee-	8g	.	4C
.	8f#	.	.
=56	=56	=56	=56
4.dd	4g	8r	4BB
.	.	8C#	.
.	4g#	8D	4BB-
8cc#	.	8E	.
4.dd	4a	8F	4AA
.	.	8E	.
.	4b	4F	4GG#
8ee	.	.	.
=57	=57	=57	=57
4cc#	4a	4E	4AA
4ff	8r	4A	2r
.	8c#	.	.
4b	8d	4G#	.
.	8c#	.	.
4b-	8d	4G	8r
.	8e	.	8C#
=58	=58	=58	=58
4a	4A	4F#	4D
4dd	8r	4F	2r
.	8A	.	.
2g	8B-	4E	.
.	8A	.	.
.	8B-	4E-	8r
.	8c	.	8AA
=59	=59	=59	=59
4f	8d	4D	8BB-
.	8B-	.	8AA
4g	8e-	2.r	2GG
.	8d	.	.
8a	8c	.	.
8g	8e-	.	.
4a	8d	.	4FF#
.	[8c	.	.
=60	=60	=60	=60
4d	8c]	4.r	4FF
.	8B	.	.
4g	2c	.	4EE
.	.	8G	.
4f#	.	8A	4EE-
.	.	8G	.
[4f	4d	8A	4DD
.	.	8B	.
=61	=61	=61	=61
4f]	4G	8c	4CC
.	.	8C	.
4e	2.r	4c	8r
.	.	.	8C
4f	.	4B	8D
.	.	.	8C
4g	.	[4B-	8D
.	.	.	8E
=62	=62	=62	=62
4c	4r	4B-]	8F
.	.	.	8C
8r	4a	4A	2F
8cc	.	.	.
8dd	4g#	8B	.
8cc	.	8A	.
8dd	[4g	8B	4E
8ee	.	8c#	.
=63	=63	=63	=63
4a	8g]	8d	4D
.	8f	8A	.
4ff	8r	2d	2.r
.	8f	.	.
4ee	8g	.	.
.	8f	.	.
[4ee-	8g	4c	.
.	8a	.	.
=64	=64	=64	=64
8ee-]	8b-	4B-	4r
8dd	8f	.	.
8r	8b-	4g	4B-
8dd	8dd	.	.
8ee-	8cc	4f#	4A
8dd	8b	.	.
8ee-	8cc	[4f	4A-
8ff	8dd	.	.
=65	=65	=65	=65
4gg	8b	4f]	4G
.	8dd	.	.
8r	4g	4e	2.r
8gg	.	.	.
8aa	4f#	4d#	.
8gg#	.	.	.
8aa	4f	[4d	.
8bb	.	.	.
=66	=66	=66	=66
8gg#	4e	4d]	4.r
8bb	.	.	.
4ee	8r	4c#	.
.	8g#	.	8E
4dd#	8a	4c	8F#
.	8g#	.	8E
4dd	8a	[4B	8F#
.	8b	.	8G#
=67	=67	=67	=67
4cc#	4.e	4B]	8A
.	.	.	8E
4ff	.	4A	4.A
.	8d	.	.
4ee	4c#	4.r	.
.	.	.	8G#
4dd#	4c	.	4A
.	.	8f#	.
=68	=68	=68	=68
4ee	8B	8e	4G#
.	8b	8d	.
4ee	8a	8c	4c
.	8g#	8B	.
4dd#	8a	4c	4F#
.	8cc	.	.
4dd	8b	4d	4F
.	8a	.	.
=69	=69	=69	=69
4cc#	4g#	8e	4E
.	.	8d#	.
4cc	4g	8e	4A
.	.	8c	.
4b	4f#	8d	2D
.	.	8c#	.
4b-	4f	8d	.
.	.	8G#	.
=70	=70	=70	=70
2.a	4e	8A	4C
.	.	8B	.
.	4f	4c	4D
.	2e	2B	8E
.	.	.	8D
4g#	.	.	4E
=71	=71	=71	=71
4a	4e	4c	4AA
2r	2r	4e	2r
.	.	4A	.
4dd	4f	4B	4G#
=72	=72	=72	=72
4dd	4f	4r	2A
4cc	4e	4c	.
4r	4r	4d	4r
4b-	4g	4e	4C#
=73	=73	=73	=73
4b-	4g	4r	2D
8a	4f	4f	.
8b	.	.	.
4cc	4r	4e	4r
8b	[4g#	4d	4E
8cc	.	.	.
=74	=74	=74	=74
4dd	4g#]	4r	2F
8cc	4a	8c	.
8dd	.	8B	.
4ee	4r	4c	4r
[4dd	4a	4d	4BB
=75	=75	=75	=75
4dd]	4g#	2e	8C
.	.	.	8BB
4cc	2a	.	8C
.	.	.	8D
4b	.	4r	8E
.	.	.	8EE
4cc#	4g	4B-	4E
=76	=76	=76	=76
4dd	8f	4A	4F
.	8e	.	.
4aa	2d	8d	4F#
.	.	8c	.
4dd	.	4B	4G
4ee	4g	4B-	4C#
=77	=77	=77	=77
4r	8f	4A	4D
.	8a	.	.
4ff	8b-	4D	2.r
.	8dd	.	.
4gg	4cc#	8E	.
.	.	8D	.
4aa	4cc	8E	.
.	.	8F#	.
=78	=78	=78	=78
4r	8b	4G	4r
.	8cc#	.	.
4bb-	4dd	8F#	4D
.	.	8E	.
4aa	4cc	8F#	4E-
.	.	8A	.
4gg	4b-	8c#	4E
.	.	[8e	.
=79	=79	=79	=79
4r	4a	8e]	4F
.	.	4d	.
8ff	2.r	.	4B-
8ee	.	8c#	.
4ff	.	8d	4A
.	.	4f	.
4gg	.	.	4G
.	.	8e	.
=80	=80	=80	=80
4.aa	4r	8f	4d
.	.	8e	.
.	4b	4d	4D
8gg	.	.	.
4ff#	8cc	4r	4AA
.	16dd	.	.
.	16ee-	.	.
4ff	[4dd	4g#	4BB
=81	=81	=81	=81
4ee	8dd]	4a	4r
.	16cc	.	.
.	16b-	.	.
4ee-	8a	4.c	4C
.	8g	.	.
4dd	4f#	.	4D
.	.	8B-	.
4cc#	4g	8A	4E
.	.	8G	.
=82	=82	=82	=82
4cc	8f#	2d	4r
.	4a	.	.
4b	.	.	4F
.	4g	.	.
4cc#	.	4e	4E
.	4b-	.	.
4dd	.	4f	4D
.	8a	.	.
=83	=83	=83	=83
[1ee	8b-	4g	4r
.	4a	.	.
.	.	4e	8C#
.	8b-	.	8AA
.	8a	4r	4BB
.	8g	.	.
.	8f	8A	4C#
.	8e	8B-	.
=84	=84	=84	=84
8ee]	4f	4.A	4D
8dd	.	.	.
8cc#	4a	.	4AA
8ee	.	8G	.
8dd	4d	8F	4BB-
8cc	.	8D	.
8b-	4e	[4G	4GG
8dd	.	.	.
=85	=85	=85	=85
8cc	4r	4G]	4AA
8b-	.	.	.
8a	4f	4.F	4D
8cc	.	.	.
8b-	4g	.	[2GG
4gg	.	8D	.
.	4a	4E-	.
8ff#	.	.	.
=86	=86	=86	=86
8gg	4r	4D	2GG]
8ff	.	.	.
8ee	4b-	8G	.
8dd	.	8F	.
8cc	4a	8E	[2AA
8dd	.	8D	.
8b-	4g	8E	.
8cc	.	8C	.
=87	=87	=87	=87
[3..a	4r	4F	4AA]
.	8f	2.r	8BB
.	8e	.	8C#
.	4f	.	4D
24a]	.	.	.
8b-	.	.	.
8a	4g	.	4BB-
8b-	.	.	.
=88	=88	=88	=88
4cc	8a	4r	4F
.	8b-	.	.
2ff	2cc	4a	8AA
.	.	.	8BB-
.	.	8g	4C
.	.	8f	.
4ee	[4b-	4g	4CC
=89	=89	=89	=89
2ff	4b-]	2f	2FF
.	4a	.	.
2r	2r	4r	2AA
.	.	[4E-	.
=90	=90	=90	=90
1r	2.r	8E-]	4BB-
.	.	8D	.
.	.	8F	4FF
.	.	8F	.
.	.	8F	4C
.	.	8E	.
.	[4B-	8G	4C#
.	.	8G	.
=91	=91	=91	=91
1r	8B-]	8G	4D
.	8A	8F#	.
.	8c	8A	4AA
.	8c	8A	.
.	8c	8A	2E
.	8B	8G#	.
.	8d	8B	.
.	8d	8B	.
=92	=92	=92	=92
1r	8d	8B	4F
.	8c#	8A	.
.	8d	8B	4E
.	8e	8c#	.
.	8f	8d	8D
.	8e	8G#	8E
.	8f	8A	4D
.	8g	8B	.
=93	=93	=93	=93
2.r	8e	4.c	8A
.	8g	.	8E
.	8f	.	2A
.	8e	8c	.
.	4d	8B-	.
.	.	8A	.
[4b-	4e	8B-	4G
.	.	8c	.
=94	=94	=94	=94
8b-]	4f	4d	4.F
8a	.	.	.
8cc	4c	4A	.
8cc	.	.	16G
.	.	.	16F
8cc	4g	[2e	8E
8b	.	.	8D
8dd	4g#	.	4E
8dd	.	.	.
=95	=95	=95	=95
8dd	4a	4e]	4AA
8cc#	.	.	.
8ee	4e	8d	2A
8ee	.	8c#	.
8ee	2b	4f	.
8dd	.	.	.
8ff	.	4r	4G#
8ff	.	.	.
=96	=96	=96	=96
8ff	4cc	4r	2A
8ee	.	.	.
8ff#	4b	4d	.
8gg#	.	.	.
8aa	8a	4c#	4r
8gg#	8b	.	.
[4aa	4a	[4c	4D#
=97	=97	=97	=97
8aa]	2ee	4c]	2E
8ff#	.	.	.
8gg	.	4B	.
8gg	.	.	.
8gg	4r	4c	4A
8ee	.	.	.
8ff	[4dd	4g	4B
8ff	.	.	.
=98	=98	=98	=98
2ee	8dd]	2g	4c
.	8b	.	.
.	8cc	.	4E
.	8cc	.	.
4dd#	8cc	4r	4F#
.	8a	.	.
[4dd	8b	[4f	4G#
.	8b	.	.
=99	=99	=99	=99
8dd]	8b	8f]	[1A
8b	8g#	8d#	.
8cc	8a	8e	.
8ee	8cc	8e	.
4a	4f#	8e	.
.	.	8c#	.
[4b	4f	8d	.
.	.	8d	.
=100	=100	=100	=100
8b]	2e	8d	4A]
8g#	.	8B	.
8a	.	4c	4.A
8cc	.	.	.
8b	4f#	4d	.
8dd	.	.	8F#
8cc#	4b-	4e	8G
8ee	.	.	8G
=101	=101	=101	=101
8dd	4a	4.A	8G
8cc#	.	.	8E
2dd	4d	.	8F
.	.	8A	8F
.	4a	4B	8F
.	.	.	8D
12gg	4g	4c#	8E
12ff	.	.	.
.	.	.	8E
12ee	.	.	.
=102	=102	=102	=102
4ff	4r	4d	8E
.	.	.	8C#
8a	4f	2r	8D
8g	.	.	8E
4a	4e	.	8F
.	.	.	8E
[4b-	4d	4g	8F
.	.	.	8G
=103	=103	=103	=103
8b-]	4r	4e	4C#
8g	.	.	.
8a	4c#	4G	2r
8a	.	.	.
8a	4d	4F	.
8f	.	.	.
8g	4e	4C#	[4BB-
8g	.	.	.
=104	=104	=104	=104
8f	4r	4D	8BB-]
16e	.	.	8GG#
16d	.	.	.
4dd	8f	4A	8AA
.	8g	.	8AA
4b	4f	4d	8AA
.	.	.	8FF
4cc#	4e	[4a	8GG
.	.	.	8GG
=105	=105	=105	=105
4dd	4d	4a]	8GG
.	.	.	8EE
4cc	4.a	4r	8FF#
.	.	.	8FF#
4b	.	2d	4GG
.	8f#	.	.
[4b-	8g	.	4EE
.	8g	.	.
=106	=106	=106	=106
8b-]	8g	4c#	4AA
8a	8e	.	.
4.dd	8f	4f	4A
.	8f	.	.
.	8f	4B	4G#
8b	8d	.	.
8cc#	8e	4B-	4G
8ee	8e	.	.
=107	=107	=107	=107
4aa	8e	4A	4F#
.	8c#	.	.
8a	4d	4d	4F
8dd	.	.	.
8dd	4r	2G	4E
8b	.	.	.
8cc	4c	.	4E-
8cc	.	.	.
=108	=108	=108	=108
8cc	4f	4F	4D
8a	.	.	.
8b-	4e	4G	4D-
8b-	.	.	.
8cc	4e-	8A	4C
8dd	.	8G	.
[4ee-	8r	4A	4F
.	[8cc	.	.
=109	=109	=109	=109
4ee-]	8cc]	4D	2BB-
.	8a	.	.
4dd	8b-	4F	.
.	8b-	.	.
4ee	8b-	4.c	2r
.	8g	.	.
[4ff	8a-	.	.
.	8a-	16d	.
.	.	16c	.
=110	=110	=110	=110
8ff]	4.g	4B	1r
8dd	.	.	.
8ee-	.	4.c	.
8ee-	8a	.	.
8ee-	4.f#	.	.
8cc	.	8A	.
8dd	.	8B-	.
8dd	8g	8B-	.
=111	=111	=111	=111
4ee	4c	8B-	2.r
.	.	8G	.
4ff#	4.cc	8A	.
.	.	8A	.
4gg	.	4G	.
.	8a	.	.
4ee-	8b-	4g	[4GG
.	8b-	.	.
=112	=112	=112	=112
4cc#	2a	4e	8GG]
.	.	.	8EE
4dd	.	2d	8FF
.	.	.	8FF
4b	2g	.	8FF
.	.	.	8DD
4cc	.	[4c	8EE-
.	.	.	8EE-
=113	=113	=113	=113
4a	[2f	4c]	8EE-
.	.	.	8CC
2b-	.	8B-	8DD
.	.	8c	8EE-
.	8f]	4d	8FF
.	8g	.	8EE-
4a	8f	4c	4FF
.	[8e-	.	.
=114	=114	=114	=114
4b-	8e-]	4.B-	4BB-
.	8d	.	.
4f	8f	.	4D
.	8f	8A	.
4cc	8f	8G	2E-
.	8e-	8B-	.
4cc#	8g	8A	.
.	8g	8G	.
=115	=115	=115	=115
4dd	8g	4A	4D
.	8f#	.	.
4a	8a	8d	4F#
.	8a	8c	.
2ee	8a	8B	4G
.	8g	8c#	.
.	8b	[4d	4G#
.	8b	.	.
=116	=116	=116	=116
4ff	4a	8d]	4A
.	.	8c#	.
4ee	8b	4.g	8r
.	8cc#	.	8A
8dd	4dd	.	4B-
8ee	.	8e	.
4dd	4r	8f	4B
.	.	8f	.
=117	=117	=117	=117
4aa	2.r	8f	4c
.	.	8d#	.
4.gg	.	8e	4c#
.	.	8e	.
.	.	8e	4d
8ee	.	8A	.
8ff	[4dd	8d	4D
8ff	.	8c	.
=118	=118	=118	=118
8ff	8dd]	4B	4G
8dd#	8b	.	.
8ee	8cc	4B-	4C
8ee	8cc	.	.
8ee	8cc	4A	4F
8cc#	8a	.	.
8dd	8b	8r	4BB
8dd	8b	8A	.
=119	=119	=119	=119
8dd	8b	4G#	4E
8b	8g#	.	.
8cc	8a	4G	8r
8cc	8a	.	8E
8cc	8a	4F#	4D#
8a	8f#	.	.
8b	8g#	4F	4D
8b	8g#	.	.
=120	=120	=120	=120
8b	8g#	2.E	4C#
8ee	16a	.	.
.	16g	.	.
4.a	8f#	.	4C
.	8e	.	.
.	[2f#	.	8BB
8cc	.	.	8AA
8b	.	4D#	4BB
8a	.	.	.
=121	=121	=121	=121
4g#	8f#]	4E	4EE
.	8e	.	.
4b	8g#	2e	2.r
.	8g#	.	.
4a	8g#	.	.
.	8f#	.	.
4cc	8a	4d#	.
.	8a	.	.
=122	=122	=122	=122
4b	8a	4e	4r
.	8g#	.	.
4.dd	8b	4G#	4E
.	8b	.	.
.	8b	4A	4F
8cc	8a	.	.
8ee-	8cc	4r	4F#
8ee-	8cc	.	.
=123	=123	=123	=123
8ee-	8cc	2.r	4G
8dd	8b	.	.
8ff	8dd	.	4G#
8ff	8dd	.	.
8ff	8dd	.	4A
8ee	8cc#	.	.
8gg	8ee	4e	4r
8gg	8ee	.	.
=124	=124	=124	=124
8gg	8ee	4f	4r
8ff	8dd	.	.
8ccc	8ee-	4f#	4A
8ccc	8ee-	.	.
8ccc	8ee-	4g	4B-
8bb-	8dd	.	.
8ff	8dd	4g#	4B
8ff	8dd	.	.
=125	=125	=125	=125
8ff	8dd	[2a	4c
8ee	8cc	.	.
8ee	8g	.	4c#
8ee	8g	.	.
8ee	4f	8a]	[2d
8dd	.	8f	.
8bb-	8dd	8g	.
8bb-	8dd	8g	.
=126	=126	=126	=126
4cc#	8b-	8g	4d]
.	8g	8e	.
4dd	4a	8f	8d
.	.	8f	8d
4b	4g#	8f	8d
.	.	8d	8B
4ee	8a	8e	8c
.	8g	8e	8c
=127	=127	=127	=127
4a	4f#	8e	8c
.	.	8c	8A
8dd	4.g#	8d	8B
8ee	.	8d	8B
[2ff	.	[2d	8B
.	8b	.	8G#
.	8a	.	8A
.	8cc	.	8A
=128	=128	=128	=128
8ff]	4b	4d]	4G#
4ee	.	.	.
.	2a	4c	4A
8dd	.	.	.
8cc	.	4f	4D
8.b	.	.	.
.	4g#	4B	4E
16a	.	.	.
8b	.	.	.
=129	=129	=129	=129
2a	4a	8c	[1AA
.	.	8d	.
.	4g	8e	.
.	.	8e	.
4r	4f#	8e	.
.	.	8c#	.
4g#	4f	8d	.
.	.	8d	.
=130	=130	=130	=130
4.a	4.e	8d	4AA]
.	.	8B	.
.	.	8c	8A
8a	8e	8c	8A
8b	8f	8d	8A
8dd	8a	8f	8F
8cc#	8e	8B-	8G
8cc#	8e	8B-	8G
=131	=131	=131	=131
8cc#	8e	8B-	8G
8ee	8g	8G	8E
8dd	8f	8A	8F
8dd	8f	8A	8F
8dd	8f	8A	8F
8ff	8a	8F	8D
8ee	8g	8G	8E
8ee	8g	8G	8E
=132	=132	=132	=132
8ee	8g	8G	8E
8gg	8b-	8E	8C#
8ff	8a	4F	4D
8ff	8dd	.	.
8ff	8dd	4r	4A
8dd	8b	.	.
8ee	8cc#	4B-	4G
8ee	8cc#	.	.
=133	=133	=133	=133
8ee	8cc#	2A	4r
8cc#	8e	.	.
8dd	8f	.	4F
8dd	8f	.	.
8dd	[2b-	[2G	4E
8cc#	.	.	.
8ee	.	.	4D
8dd	.	.	.
=134	=134	=134	=134
8ff	4.b-]	4G]	4r
8ee	.	.	.
4.gg	.	4E	4C#
.	8b-	.	.
.	4a	4F	4D
8ff	.	.	.
8ee	[4g	4G	4E
8dd	.	.	.
=135	=135	=135	=135
8cc#	4g]	4.A	4r
8a	.	.	.
2dd	8f	.	8F
.	8d	8B-	8G
.	[2g	8B-	4F
.	.	8A	.
4cc#	.	8A	4E
.	.	8G	.
=136	=136	=136	=136
8dd	4g]	2A	8D
8a	.	.	8C#
8dd	8f	.	8D
8dd	8g	.	8E
8dd	4f	4r	4F
8b	.	.	.
8cc	[4e-	4A	4F#
8cc	.	.	.
=137	=137	=137	=137
4b-	8e-]	4B-	4G
.	8d	.	.
4.a	8f	4F	4D
.	8f	.	.
.	8f	4c	[2A
8g	8e	.	.
8b-	8g	4c#	.
8b-	8g	.	.
=138	=138	=138	=138
8b-	8g	4d	1A_
8a	8f#	.	.
8cc	8a	4A	.
8cc	8a	.	.
8cc	8a	2e	.
8b	8g#	.	.
8dd	8b	.	.
8dd	8b	.	.
=139	=139	=139	=139
8dd	8b	4f	1A_
8cc#	8a	.	.
8dd	8b	4e	.
8ee	8cc#	.	.
8ff	8dd	8d	.
8ee	8cc#	8e	.
8ff	8dd	4d	.
8gg	8ee	.	.
=140	=140	=140	=140
4ee	4cc#	8a	4A]
.	.	8e	.
4ff	4cc	8a	2.r
.	.	8a	.
4dd	4b	8a	.
.	.	8f#	.
4ee	4b-	8g	.
.	.	8g	.
=141	=141	=141	=141
4cc#	4a	8g	4r
.	.	8e	.
4dd	4b-	8f	4.D
.	.	8f	.
2r	4b	8f	.
.	.	8a-	8F
.	4cc	8g	8E
.	.	8g	8E
=142	=142	=142	=142
4r	4cc#	8g	8E
.	.	8b-	8G
4.aa	4dd	4a	8F#
.	.	.	8F#
.	[2ee-	2c	8F#
8ff#	.	.	8A
8gg	.	.	8G
8gg	.	.	8G
=143	=143	=143	=143
8gg	8ee-]	4B-	8G
8ee	8cc#	.	8B-
8ff	8dd	2r	8A
8ff	8dd	.	8A
8ff	8dd	.	[2A
8dd#	8b	.	.
8ee	8cc	4g	.
8ee	8cc	.	.
=144	=144	=144	=144
4dd#	4.b	4f#	8A]
.	.	.	8F#
8ee	.	2e	8G
8dd	8b-	.	8G
4cc#	4.a	.	8G
.	.	.	8E
8dd	.	[4d	8F
8cc	8a-	.	8F
=145	=145	=145	=145
4b	4.g	4d]	8F
.	.	.	8D
2cc	.	2.r	8E-
.	8f	.	8F
.	8e-	.	4G
.	8d	.	.
4b	8f	.	4GG
.	8f	.	.
=146	=146	=146	=146
4cc	8f	4r	2C
.	8e	.	.
4g	8g	4E	.
.	8g	.	.
4dd	8g	4B	4r
.	8f#	.	.
4dd#	8a	4A	4F
.	8a	.	.
=147	=147	=147	=147
4ee	8a	4r	2E
.	8g#	.	.
4b	8b	4G	.
.	8b	.	.
2ff#	8b	4F#	4D#
.	8a	.	.
.	8cc	4E	4A
.	8cc	.	.
=148	=148	=148	=148
4gg	8cc	4r	4G
.	8b	.	.
4ff#	8a	4D#	2C
.	8b	.	.
8ee	4g	4E	.
8ff#	.	.	.
4ee	4cc	4F#	8BB
.	.	.	8AA
=149	=149	=149	=149
8bb	4b	4r	4GG
8dd#	.	.	.
4.ee	2.r	8G	4C
.	.	8A	.
.	.	4G	4AA
8cc#	.	.	.
8dd	.	4F#	4BB
8dd	.	.	.
=150	=150	=150	=150
8dd	4r	2E	4GG#
8b	.	.	.
8cc	4.a	.	4AA
8cc	.	.	.
8cc	.	4r	4EE
8a	8f#	.	.
8b-	8g	[4e	4r
8b-	8g	.	.
=151	=151	=151	=151
4a	4f#	8e]	2.r
.	.	8c#	.
4b-	4f	8d	.
.	.	8d	.
4g#	4e	8d	.
.	.	8B	.
4a	4r	8c	[4A
.	.	8c	.
=152	=152	=152	=152
4dd	2.r	4B	8A]
.	.	.	8F#
4ee	.	4B-	8G
.	.	.	8G
4cc#	.	4.A	8G
.	.	.	8E
[4dd	[4a	.	4F#
.	.	8c	.
=153	=153	=153	=153
8dd]	8a]	8B-	4G
8ff	8f	8A	.
8ee	8g	4B-	4C#
8ee	8g	.	.
8ee	8g	4r	4r
8gg	8e	.	.
8ff	8f	8A	4D
8ff	8f	8B	.
=154	=154	=154	=154
8ff	8f	8c#	4A
8aa	8d	8B	.
8gg	8e	4c#	4B-
8gg	8e	.	.
8gg	8e	4r	4r
8bb-	8c#	.	.
8aa	[4d	4c	4F#
8aa	.	.	.
=155	=155	=155	=155
4gg	8d]	8B	4F
.	8B	8d	.
4.g	8c	8c	4E
.	8e	8c	.
.	8e	[2c	4r
8b-	8g	.	.
8a	8f#	.	4E-
8a	8f#	.	.
=156	=156	=156	=156
8a	8f#	8c]	4D
8f#	8d	8A	.
8g	4.e	8B-	4C#
8g	.	8B-	.
8g	.	8B-	4r
8b-	8g	8G	.
[4ee-	8f#	8A	4C
.	8f#	8A	.
=157	=157	=157	=157
8ee-]	8f#	8A	4BB
8dd	8a	8F#	.
8gg	8g	8G	2BB-
8ff	8g	8G	.
8ee	8g	8G	.
8dd	8a	8E	.
8cc#	[4b-	8F	8AA
8dd	.	8F	8GG#
=158	=158	=158	=158
4cc#	4b-]	8E	4AA
.	.	8A	.
4aa	4e	4c#	8r
.	.	.	8G
4dd	4a	4r	8F
.	.	.	8E
4ee	4g	[4b-	8D
.	.	.	8C#
=159	=159	=159	=159
4r	4r	8b-]	4D
.	.	8a	.
4ff	4f	4.dd	8r
.	.	.	8D
4gg	4e	.	4E
.	.	8cc	.
4aa	4d	8b-	4F#
.	.	8a	.
=160	=160	=160	=160
4r	4r	4b-	8G
.	.	.	8F
4bb-	4c#	4.r	8E
.	.	.	8G
4aa	4d	.	[2F
.	.	8A	.
4gg	4e	8c#	.
.	.	8A	.
=161	=161	=161	=161
4r	4r	4.d	8F]
.	.	.	8F
8ff	8f	.	4.B-
8ee	8g	8c#	.
4ff	4f	4.d	.
.	.	.	8A
4gg	4e-	.	4G
.	.	[8c	.
=162	=162	=162	=162
4aa	4d	8c]	4F#
.	.	8A	.
4.dd	4f#	8B-	8r
.	.	8B-	8D
.	[2g	[2B-	4E-
8b-	.	.	.
8cc	.	.	4E
8cc	.	.	.
=163	=163	=163	=163
[3..cc	4g]	8B-]	4F
.	.	8G	.
.	8f	8A-	8r
.	8e	8A-	8C
.	[2f	[2A-	4D-
24cc]	.	.	.
8a-	.	.	.
8b-	.	.	4D
8b-	.	.	.
=164	=164	=164	=164
2b-	8f]	8A-]	4E-
.	8d	8F	.
.	8e-	4G	4B-
.	8b-	.	.
4r	8b-	4d	4E
.	8g	.	.
[4dd	8a	4c	4F#
.	8a	.	.
=165	=165	=165	=165
8dd]	4g	4r	4r
8ff	.	.	.
8ee	4.cc	4B-	4G
8ee	.	.	.
[2ff	.	4A	4A
.	8b	.	.
.	8dd	4G	4B
.	8dd	.	.
=166	=166	=166	=166
8ff]	4cc	4r	4r
8dd	.	.	.
8ee-	4.r	4F#	4c
8ee-	.	.	.
4.ee-	.	4G	4B-
.	8g	.	.
.	[4f#	4A	4A
8ee-	.	.	.
=167	=167	=167	=167
8dd	4f#]	4r	4r
8cc	.	.	.
8b-	4g	8B-	8G
8a	.	8c	8F#
4g	8r	4B-	4G
.	8e-	.	.
[4f	8d	4A	4A
.	8c	.	.
=168	=168	=168	=168
8f]	4.d	4G	4B
8a-	.	.	.
8g	.	2.r	4BB
8g	8f	.	.
8g	8e	.	4C
8b-	8e	.	.
8a	8e	.	4C#
8a	8g	.	.
=169	=169	=169	=169
8a	8f#	4r	2D
8cc	8f#	.	.
8b	8f#	4.d	.
8b	8a	.	.
8b	[2g	.	4r
8dd	.	8f	.
8cc#	.	8e	[4B-
8cc#	.	8e	.
=170	=170	=170	=170
8cc#	8g]	8e	8B-]
8ee	8b-	8g	8G
8dd	8a	8f	8A
8dd	8a	8f	8A
8dd	8a	8f	8A
8ff	8dd	8a	8F
8ee	8b-	8g	8G
8ee	8b-	8g	8G
=171	=171	=171	=171
2a	4e	4c#	8G
.	.	.	8E
.	4d	4d	8F
.	.	.	8F
4r	[2b-	[2G	8F
.	.	.	8D
4gg	.	.	8E
.	.	.	8E
=172	=172	=172	=172
8cc#	4b-]	4G]	8E
8ee	.	.	8C#
8dd	4a	4F	4D
8dd	.	.	.
8dd	2b-	4r	4GG
8ff	.	.	.
8ee	.	4d	[4G
8ee	.	.	.
=173	=173	=173	=173
8ee	2a	2c#	4G]
8gg	.	.	.
8ff	.	.	8A
8ee	.	.	8G
8aa	4r	4r	4F
8dd	.	.	.
8gg	4g	4d	4B-
8gg	.	.	.
=174	=174	=174	=174
8gg	4.a	4c#	4.A
8ee	.	.	.
8ff	.	4d	.
8ff	8b-	.	8G
8ff	8a	4r	4A
8dd	8f	.	.
4ee	8g	4C#	4AA
.	8g	.	.
=175	=175	=175	=175
4dd	4f	8D	4BB-
.	.	8E	.
4a	4d	8F	4FF
.	.	8F	.
4r	4a	8F	4C
.	.	8E	.
[4b-	4g	8G	4C#
.	.	8G	.
=176	=176	=176	=176
8b-]	4r	8G	4D
8a	.	8F	.
8cc	4f	8A	4AA
8cc	.	8A	.
8cc	4e	8A	2E
8b	.	8G	.
[4gg	4d	8B-	.
.	.	8B-	.
=177	=177	=177	=177
8gg]	4r	8B-	4F
8ff	.	8A	.
8gg	4c#	8B-	4E
8ee	.	8G	.
4ff	4d	4.A	8D
.	.	.	8E
4bb-	4e	.	4D
.	.	8G	.
=178	=178	=178	=178
8aa	4r	8F	4A
8cc#	.	8E	.
8dd	8f	4D	4B-
8dd	8g	.	.
8dd	4f	[2A	4.A
8b	.	.	.
8cc	4e	.	.
8cc	.	.	8G
=179	=179	=179	=179
8cc	2d	4A]	4F#
8a	.	.	.
8b	.	2G	4F
8dd	.	.	.
8g	4c#	.	4E
8b-	.	.	.
8cc	4c	4A	[4E-
8g-	.	.	.
=180	=180	=180	=180
4f	8d	4B-	8E-]
.	4b-	.	8D
4dd	.	4F	8F
.	4a	.	8F
4aa	.	4c	8F
.	8cc	.	8E
4gg	8ee	4c#	8G
.	8b-	.	8G
=181	=181	=181	=181
4r	8a	4d	8G
.	8dd	.	8F
4ff	8cc#	4A	8A
.	8cc	.	8A
4ee	8b	2e	8A
.	8b-	.	8G
4dd	8a	.	8B-
.	8g#	.	8B-
=182	=182	=182	=182
4r	8a	4f	2..A
.	8b-	.	.
4cc#	8g	4e	.
.	8a	.	.
4dd	4f	8d	.
.	.	8e	.
4ee	4b-	4d	.
.	.	.	8G#
=183	=183	=183	=183
4r	4c#	4a	2.A
8dd 8ff	8a	4d	.
8gg 8ee	8b-	.	.
4ff 4dd	4a	[2A	.
4cc# 4ee	4g	.	4AA
=184	=184	=184	=184
1dd	1f#	1A]	1D
==	==	==	==
*-	*-	*-	*-
!!!RWG1: This file contains only pitch and duration data.
!!!RWG2: Transposing instruments are not transposed.
!!!RWG3: Spines may have incompatible meters.
!!!RWG4: Durations of rests and tied notes may be interpreted.
!!!RWG: Key is interpreted using the Humdrum key tool.
!!!AFT: stage1
!!!END: 1997/04/15/
!!format changes:
!!content changes:
!!public access: complete
!!!KEY: 678295906
!!!EMD: Converted from MuseData to Humdrum Dec 19, 2000, by Andreas Kornstaedt using muse2kern.
